!!!OTL: Jacobslied
!!!ARE: Europa, Mitteleuropa, Deutschland
!!!SCT: A0610A
!!!YEM: Copyright 1995, estate of Helmut Schaffrath.
**kern
*ICvox
*Ivox
*M4/1
*k[b-]
*d:
=1
{1fn
1fn
1g
1g
=2
1a
1a
1a
2r}
{2a
=3
1a
1a
1a
1a
=4
1g
1fn
1g
2r}
{2g
=5
1a
1a
1fn
1fn
=6
0d
0cn}
=7
{1a
1a
1a
1a
=8
1g
1fn
1g
2r}
{2a
=9
1fn
1e
1d
1fn
=10
2e
2d
1e
0d}
==
!!!AGN: Romanze, Ballade, Lied, religioeses Lied
!! Forster, Frische Liedlein V. 1556 No. 44.
!!!ONB: ESAC (Essen Associative Code) Database: ALTDEU
!!!AMT: simple quadruple
!!!AIN: vox
!!!EED: Helmut Schaffrath
!!!EEV: 1.0
*-
